;FLAVOR:Marlin
;TIME:17697
;Filament used: 12.1238m
;Layer height: 0.2
;MINX:15.204
;MINY:63.2
;MINZ:0.2
;MAXX:204.796
;MAXY:156.8
;MAXZ:46.76
;TARGET_MACHINE.NAME:Creality Ender-3 S1
;Generated with Cura_SteamEngine 5.6.0
M82 ;absolute extrusion mode
; Ender 3 S1 Start G-code
; M413 S0 ; Disable power loss recovery
G92 E0 ; Reset Extruder

; Prep surfaces before auto home for better accuracy
M140 S70
M104 S210

G28 ; Home all axes
G1 Z10.0 F3000 ; Move Z Axis up little to prevent scratching of Heat Bed
G1 X0 Y0

M190 S70
M109 S210

G1 X0.1 Y20 Z0.3 F5000.0 ; Move to start position
G1 X0.1 Y200.0 Z0.3 F1500.0 E15 ; Draw the first line
G1 X0.4 Y200.0 Z0.3 F5000.0 ; Move to side a little
G1 X0.4 Y20 Z0.3 F1500.0 E30 ; Draw the second line
G92 E0 ; Reset Extruder
G1 Z2.0 F3000 ; Move Z Axis up little to prevent scratching of Heat Bed
G1 X5 Y20 Z0.3 F5000.0 ; Move over to prevent blob squish

G92 E0
G92 E0
G1 F2400 E-0.8
;LAYER_COUNT:195
;LAYER:0
M107
M204 S2000
G0 F6000 X25.507 Y64.528 Z0.2
M204 S500
;TYPE:SKIRT
G1 F2400 E0
G1 F1200 X26.346 Y64.194 E0.03004
G1 X27.172 Y63.936 E0.05882
G1 X28.076 Y63.691 E0.08997
G1 X29.054 Y63.474 E0.12329
G1 X29.923 Y63.354 E0.15247
G1 X31.172 Y63.239 E0.19418
G1 X31.8 Y63.213 E0.21509
G1 X32.586 Y63.201 E0.24123
G1 X187.309 Y63.2 E5.38734
G1 X188.165 Y63.21 E5.41581
G1 X188.816 Y63.24 E5.43749
G1 X189.689 Y63.308 E5.46661
G1 X190.107 Y63.352 E5.48059
G1 X191 Y63.484 E5.51062
G1 X191.813 Y63.665 E5.53832
G1 X192.735 Y63.907 E5.57002
G1 X193.663 Y64.197 E5.60236
G1 X194.63 Y64.591 E5.63709
G1 X195.47 Y64.981 E5.66789
G1 X196.386 Y65.459 E5.70226
G1 X197.064 Y65.885 E5.72889
G1 X198.147 Y66.64 E5.7728
G1 X198.928 Y67.26 E5.80597
G1 X199.483 Y67.774 E5.83113
G1 X200.155 Y68.44 E5.8626
G1 X200.81 Y69.153 E5.8948
G1 X201.354 Y69.848 E5.92415
G1 X201.695 Y70.318 E5.94347
G1 X202.086 Y70.888 E5.96646
G1 X202.616 Y71.748 E6.00006
G1 X202.914 Y72.32 E6.02151
G1 X203.167 Y72.842 E6.0408
G1 X203.468 Y73.503 E6.06496
G1 X203.802 Y74.342 E6.09499
G1 X204.06 Y75.168 E6.12377
G1 X204.305 Y76.074 E6.15499
G1 X204.522 Y77.056 E6.18844
G1 X204.653 Y78.03 E6.22113
G1 X204.737 Y78.957 E6.25209
G1 X204.783 Y79.795 E6.28
G1 X204.795 Y80.583 E6.30621
G1 X204.796 Y139.313 E8.25958
G1 X204.785 Y140.211 E8.28945
G1 X204.75 Y141.012 E8.31612
G1 X204.675 Y141.887 E8.34533
G1 X204.47 Y143.209 E8.38982
G1 X204.309 Y143.932 E8.41446
G1 X204.159 Y144.515 E8.43448
G1 X203.814 Y145.621 E8.47301
G1 X203.5 Y146.423 E8.50166
G1 X203.242 Y147.018 E8.52323
G1 X202.704 Y148.09 E8.56312
G1 X202.281 Y148.809 E8.59087
G1 X201.986 Y149.273 E8.60916
G1 X201.239 Y150.315 E8.6518
G1 X200.767 Y150.886 E8.67644
G1 X200.322 Y151.389 E8.69878
G1 X199.479 Y152.243 E8.73869
G1 X198.864 Y152.785 E8.76595
G1 X198.378 Y153.186 E8.78691
G1 X197.411 Y153.898 E8.82685
G1 X196.731 Y154.329 E8.85363
G1 X196.201 Y154.639 E8.87405
G1 X195.084 Y155.215 E8.91585
G1 X194.386 Y155.517 E8.94114
G1 X193.8 Y155.747 E8.96208
G1 X192.586 Y156.146 E9.00458
G1 X191.903 Y156.318 E9.02801
G1 X191.299 Y156.455 E9.04861
G1 X190.144 Y156.648 E9.08756
G1 X189.216 Y156.735 E9.11856
G1 X188.53 Y156.777 E9.14142
G1 X187.876 Y156.795 E9.16318
G1 X32.691 Y156.8 E14.32465
G1 X31.835 Y156.79 E14.35312
G1 X31.184 Y156.76 E14.3748
G1 X30.311 Y156.692 E14.40392
G1 X29.893 Y156.648 E14.4179
G1 X29 Y156.516 E14.44793
G1 X28.187 Y156.335 E14.47563
G1 X27.265 Y156.093 E14.50733
G1 X26.337 Y155.803 E14.53967
G1 X25.37 Y155.409 E14.5744
G1 X24.53 Y155.019 E14.60521
G1 X23.614 Y154.541 E14.63957
G1 X22.936 Y154.115 E14.6662
G1 X21.853 Y153.36 E14.71011
G1 X21.072 Y152.74 E14.74328
G1 X20.517 Y152.226 E14.76844
G1 X19.845 Y151.56 E14.79991
G1 X19.19 Y150.847 E14.83211
G1 X18.646 Y150.152 E14.86146
G1 X18.305 Y149.682 E14.88078
G1 X17.914 Y149.112 E14.90377
G1 X17.384 Y148.252 E14.93737
G1 X17.086 Y147.68 E14.95882
G1 X16.833 Y147.158 E14.97811
G1 X16.532 Y146.497 E15.00227
G1 X16.198 Y145.658 E15.0323
G1 X15.94 Y144.832 E15.06109
G1 X15.695 Y143.926 E15.0923
G1 X15.478 Y142.944 E15.12575
G1 X15.347 Y141.97 E15.15844
G1 X15.263 Y141.043 E15.1894
G1 X15.217 Y140.205 E15.21731
G1 X15.205 Y139.417 E15.24352
G1 X15.204 Y80.687 E17.19689
G1 X15.214 Y79.831 E17.22536
G1 X15.244 Y79.18 E17.24704
G1 X15.312 Y78.307 E17.27616
G1 X15.356 Y77.889 E17.29014
G1 X15.488 Y76.996 E17.32017
G1 X15.67 Y76.179 E17.34801
G1 X15.912 Y75.259 E17.37965
G1 X16.202 Y74.332 E17.41195
G1 X16.595 Y73.366 E17.44664
G1 X16.986 Y72.522 E17.47757
G1 X17.433 Y71.664 E17.50975
G1 X17.908 Y70.905 E17.53953
G1 X18.644 Y69.849 E17.58234
G1 X19.264 Y69.068 E17.61551
G1 X19.778 Y68.513 E17.64067
G1 X20.444 Y67.841 E17.67214
G1 X21.157 Y67.186 E17.70434
G1 X21.852 Y66.642 E17.7337
G1 X22.322 Y66.301 E17.75301
G1 X22.892 Y65.91 E17.776
G1 X23.752 Y65.38 E17.8096
G1 X24.324 Y65.082 E17.83105
G1 X24.846 Y64.829 E17.85034
G1 X25.507 Y64.528 E17.8745
M204 S2000
G0 F6000 X25.655 Y64.9
M204 S500
G1 F1200 X26.494 Y64.566 E17.90454
G1 X27.276 Y64.322 E17.93178
G1 X28.163 Y64.082 E17.96234
G1 X29.141 Y63.865 E17.99566
G1 X29.96 Y63.752 E18.02316
G1 X31.189 Y63.639 E18.06421
G1 X31.806 Y63.613 E18.08475
G1 X32.586 Y63.601 E18.1107
G1 X187.304 Y63.6 E23.25664
G1 X188.147 Y63.61 E23.28468
G1 X188.785 Y63.639 E23.30592
G1 X189.647 Y63.706 E23.33468
G1 X190.049 Y63.748 E23.34812
G1 X190.942 Y63.88 E23.37815
G1 X191.712 Y64.052 E23.40439
G1 X192.616 Y64.289 E23.43547
G1 X193.512 Y64.568 E23.46668
G1 X194.462 Y64.954 E23.50079
G1 X195.285 Y65.336 E23.53097
G1 X196.173 Y65.798 E23.56426
G1 X196.851 Y66.224 E23.59089
G1 X197.899 Y66.953 E23.63335
G1 X198.656 Y67.553 E23.66548
G1 X199.201 Y68.058 E23.69019
G1 X199.86 Y68.711 E23.72105
G1 X200.515 Y69.424 E23.75325
G1 X201.03 Y70.083 E23.78107
G1 X201.365 Y70.545 E23.80005
G1 X201.745 Y71.098 E23.82237
G1 X202.275 Y71.958 E23.85596
G1 X202.554 Y72.494 E23.87606
G1 X202.803 Y73.008 E23.89506
G1 X203.096 Y73.651 E23.91856
G1 X203.43 Y74.49 E23.9486
G1 X203.674 Y75.272 E23.97584
G1 X203.914 Y76.16 E24.00644
G1 X204.131 Y77.142 E24.03989
G1 X204.255 Y78.066 E24.07089
G1 X204.338 Y78.979 E24.10139
G1 X204.383 Y79.801 E24.12877
G1 X204.395 Y80.583 E24.15478
G1 X204.396 Y139.308 E26.10798
G1 X204.385 Y140.194 E26.13745
G1 X204.351 Y140.978 E26.16355
G1 X204.276 Y141.853 E26.19276
G1 X204.079 Y143.123 E26.23551
G1 X203.922 Y143.832 E26.25966
G1 X203.777 Y144.396 E26.27903
G1 X203.432 Y145.502 E26.31756
G1 X203.133 Y146.264 E26.34479
G1 X202.884 Y146.839 E26.36563
G1 X202.359 Y147.887 E26.40461
G1 X201.943 Y148.594 E26.4319
G1 X201.648 Y149.058 E26.45018
G1 X200.93 Y150.06 E26.49118
G1 X200.467 Y150.621 E26.51538
G1 X200.037 Y151.108 E26.53699
G1 X199.194 Y151.962 E26.5769
G1 X198.609 Y152.477 E26.60282
G1 X198.141 Y152.864 E26.62302
G1 X197.197 Y153.56 E26.66203
G1 X196.529 Y153.984 E26.68834
G1 X196.017 Y154.284 E26.70808
G1 X194.925 Y154.848 E26.74896
G1 X194.239 Y155.145 E26.77382
G1 X193.675 Y155.367 E26.79398
G1 X192.488 Y155.758 E26.83555
G1 X191.815 Y155.928 E26.85863
G1 X191.233 Y156.06 E26.87848
G1 X190.078 Y156.253 E26.91743
G1 X189.192 Y156.336 E26.94703
G1 X188.519 Y156.377 E26.96945
G1 X187.876 Y156.395 E26.99085
G1 X32.696 Y156.4 E32.15216
G1 X31.853 Y156.39 E32.1802
G1 X31.215 Y156.361 E32.20144
G1 X30.353 Y156.294 E32.2302
G1 X29.951 Y156.252 E32.24364
G1 X29.058 Y156.12 E32.27366
G1 X28.288 Y155.948 E32.2999
G1 X27.384 Y155.711 E32.33099
G1 X26.488 Y155.432 E32.3622
G1 X25.538 Y155.046 E32.39631
G1 X24.715 Y154.664 E32.42648
G1 X23.827 Y154.202 E32.45978
G1 X23.149 Y153.776 E32.48641
G1 X22.101 Y153.047 E32.52887
G1 X21.344 Y152.447 E32.561
G1 X20.799 Y151.942 E32.58571
G1 X20.14 Y151.289 E32.61657
G1 X19.485 Y150.576 E32.64877
G1 X18.97 Y149.917 E32.67659
G1 X18.635 Y149.455 E32.69557
G1 X18.255 Y148.902 E32.71788
G1 X17.725 Y148.042 E32.75148
G1 X17.446 Y147.506 E32.77158
G1 X17.197 Y146.992 E32.79058
G1 X16.904 Y146.349 E32.81408
G1 X16.57 Y145.51 E32.84411
G1 X16.326 Y144.728 E32.87136
G1 X16.086 Y143.84 E32.90195
G1 X15.869 Y142.858 E32.9354
G1 X15.745 Y141.934 E32.96641
G1 X15.662 Y141.021 E32.9969
G1 X15.617 Y140.199 E33.02428
G1 X15.605 Y139.417 E33.0503
G1 X15.604 Y80.692 E35.0035
G1 X15.614 Y79.849 E35.03154
G1 X15.643 Y79.211 E35.05278
G1 X15.71 Y78.349 E35.08154
G1 X15.752 Y77.947 E35.09498
G1 X15.884 Y77.054 E35.125
G1 X16.057 Y76.281 E35.15135
G1 X16.294 Y75.378 E35.1824
G1 X16.584 Y74.451 E35.21471
G1 X16.958 Y73.534 E35.24765
G1 X17.341 Y72.707 E35.27796
G1 X17.788 Y71.849 E35.31014
G1 X18.236 Y71.133 E35.33823
G1 X18.957 Y70.097 E35.38021
G1 X19.557 Y69.34 E35.41234
G1 X20.062 Y68.795 E35.43705
G1 X20.715 Y68.136 E35.46791
G1 X21.428 Y67.481 E35.50011
G1 X22.087 Y66.966 E35.52792
G1 X22.549 Y66.631 E35.54691
G1 X23.102 Y66.251 E35.56922
G1 X23.962 Y65.721 E35.60282
G1 X24.498 Y65.442 E35.62292
G1 X25.012 Y65.193 E35.64192
G1 X25.655 Y64.9 E35.66542
M204 S2000
G0 F6000 X25.803 Y65.272
M204 S500
G1 F1200 X26.642 Y64.938 E35.69545
G1 X27.381 Y64.708 E35.7212
G1 X28.25 Y64.472 E35.75115
G1 X29.196 Y64.261 E35.78338
G1 X29.997 Y64.15 E35.81028
G1 X31.206 Y64.039 E35.85066
G1 X31.812 Y64.013 E35.87083
G1 X32.586 Y64.001 E35.89658
G1 X187.299 Y64 E41.04235
G1 X188.129 Y64.01 E41.06996
G1 X188.754 Y64.038 E41.09077
G1 X189.606 Y64.104 E41.11919
G1 X189.991 Y64.144 E41.13207
G1 X190.884 Y64.276 E41.16209
G1 X191.611 Y64.439 E41.18687
G1 X192.497 Y64.671 E41.21733
G1 X193.393 Y64.95 E41.24855
G1 X194.294 Y65.317 E41.2809
G1 X195.101 Y65.691 E41.31049
G1 X195.96 Y66.137 E41.34268
G1 X196.638 Y66.563 E41.36931
G1 X197.651 Y67.267 E41.41034
G1 X198.384 Y67.847 E41.44143
G1 X198.919 Y68.342 E41.46567
G1 X199.565 Y68.982 E41.49592
G1 X200.22 Y69.695 E41.52812
G1 X200.706 Y70.317 E41.55437
G1 X201.035 Y70.772 E41.57305
G1 X201.415 Y71.325 E41.59537
G1 X201.92 Y72.143 E41.62734
G1 X202.194 Y72.669 E41.64707
G1 X202.439 Y73.174 E41.66573
G1 X202.724 Y73.799 E41.68858
G1 X203.058 Y74.638 E41.71862
G1 X203.288 Y75.377 E41.74436
G1 X203.524 Y76.247 E41.77434
G1 X203.735 Y77.195 E41.80664
G1 X203.857 Y78.102 E41.83708
G1 X203.939 Y79.001 E41.86711
G1 X203.983 Y79.807 E41.89395
G1 X203.995 Y80.583 E41.91977
G1 X203.996 Y139.303 E43.8728
G1 X203.985 Y140.177 E43.90187
G1 X203.952 Y140.944 E43.92741
G1 X203.877 Y141.819 E43.95662
G1 X203.688 Y143.037 E43.99761
G1 X203.531 Y143.746 E44.02177
G1 X203.395 Y144.277 E44.04
G1 X203.059 Y145.356 E44.07758
G1 X202.766 Y146.105 E44.10433
G1 X202.526 Y146.66 E44.12445
G1 X202.001 Y147.708 E44.16343
G1 X201.605 Y148.379 E44.18935
G1 X201.31 Y148.843 E44.20763
G1 X200.621 Y149.805 E44.24699
G1 X200.158 Y150.366 E44.27118
G1 X199.752 Y150.827 E44.29161
G1 X198.929 Y151.662 E44.33061
G1 X198.354 Y152.169 E44.35611
G1 X197.903 Y152.542 E44.37557
G1 X196.982 Y153.222 E44.41365
G1 X196.326 Y153.639 E44.4395
G1 X195.833 Y153.929 E44.45853
G1 X194.766 Y154.481 E44.49848
G1 X194.092 Y154.773 E44.52291
G1 X193.55 Y154.987 E44.5423
G1 X192.39 Y155.37 E44.58293
G1 X191.727 Y155.538 E44.60567
G1 X191.167 Y155.665 E44.62477
G1 X190.012 Y155.858 E44.66372
G1 X189.168 Y155.937 E44.69191
G1 X188.508 Y155.977 E44.71391
G1 X187.876 Y155.995 E44.73494
G1 X32.701 Y156 E49.89608
G1 X31.871 Y155.99 E49.92369
G1 X31.246 Y155.962 E49.94449
G1 X30.394 Y155.896 E49.97292
G1 X30.009 Y155.856 E49.98579
G1 X29.116 Y155.724 E50.01581
G1 X28.389 Y155.561 E50.04059
G1 X27.503 Y155.329 E50.07106
G1 X26.607 Y155.05 E50.10227
G1 X25.706 Y154.683 E50.13463
G1 X24.899 Y154.309 E50.16421
G1 X24.04 Y153.863 E50.1964
G1 X23.362 Y153.437 E50.22303
G1 X22.349 Y152.733 E50.26406
G1 X21.616 Y152.153 E50.29515
G1 X21.081 Y151.658 E50.3194
G1 X20.435 Y151.018 E50.34964
G1 X19.78 Y150.305 E50.38184
G1 X19.294 Y149.683 E50.4081
G1 X18.965 Y149.228 E50.42677
G1 X18.585 Y148.675 E50.44909
G1 X18.08 Y147.857 E50.48106
G1 X17.806 Y147.331 E50.50079
G1 X17.561 Y146.826 E50.51946
G1 X17.276 Y146.201 E50.5423
G1 X16.942 Y145.362 E50.57234
G1 X16.712 Y144.623 E50.59808
G1 X16.476 Y143.753 E50.62806
G1 X16.265 Y142.805 E50.66037
G1 X16.143 Y141.898 E50.6908
G1 X16.061 Y140.999 E50.72083
G1 X16.017 Y140.193 E50.74768
G1 X16.005 Y139.417 E50.77349
G1 X16.004 Y80.697 E52.72652
G1 X16.014 Y79.867 E52.75413
G1 X16.042 Y79.242 E52.77494
G1 X16.108 Y78.39 E52.80336
G1 X16.148 Y78.005 E52.81624
G1 X16.28 Y77.112 E52.84626
G1 X16.444 Y76.382 E52.87115
G1 X16.676 Y75.497 E52.90158
G1 X16.955 Y74.602 E52.93276
G1 X17.321 Y73.702 E52.96507
G1 X17.696 Y72.892 E52.99476
G1 X18.143 Y72.034 E53.02694
G1 X18.564 Y71.361 E53.05334
G1 X19.271 Y70.345 E53.09451
G1 X19.851 Y69.612 E53.1256
G1 X20.346 Y69.077 E53.14984
G1 X20.986 Y68.431 E53.18009
G1 X21.699 Y67.776 E53.21229
G1 X22.321 Y67.29 E53.23854
G1 X22.776 Y66.961 E53.25722
G1 X23.329 Y66.581 E53.27953
G1 X24.147 Y66.076 E53.31151
G1 X24.673 Y65.802 E53.33123
G1 X25.178 Y65.557 E53.3499
G1 X25.803 Y65.272 E53.37275
M204 S2000
G0 F6000 X25.951 Y65.644
M204 S500
G1 F1200 X26.79 Y65.31 E53.40278
G1 X27.486 Y65.094 E53.42702
G1 X28.338 Y64.862 E53.45639
G1 X29.251 Y64.657 E53.48751
G1 X30.033 Y64.548 E53.51378
G1 X31.223 Y64.439 E53.55352
G1 X31.818 Y64.413 E53.57333
G1 X32.586 Y64.401 E53.59888
G1 X187.294 Y64.4 E58.74449
G1 X188.111 Y64.41 E58.77166
G1 X188.723 Y64.437 E58.79204
G1 X189.565 Y64.502 E58.82012
G1 X189.933 Y64.54 E58.83243
G1 X190.826 Y64.672 E58.86245
G1 X191.51 Y64.826 E58.88577
G1 X192.378 Y65.053 E58.91561
G1 X193.274 Y65.332 E58.94683
G1 X194.126 Y65.68 E58.97744
G1 X194.917 Y66.046 E59.00642
G1 X195.748 Y66.476 E59.03754
G1 X196.41 Y66.891 E59.06353
G1 X197.403 Y67.581 E59.10375
G1 X198.112 Y68.141 E59.1338
G1 X198.647 Y68.636 E59.15804
G1 X199.271 Y69.253 E59.18723
G1 X199.905 Y69.941 E59.21835
G1 X200.382 Y70.551 E59.2441
G1 X200.706 Y70.999 E59.26249
G1 X201.075 Y71.535 E59.28413
G1 X201.565 Y72.328 E59.31514
G1 X201.834 Y72.844 E59.33449
G1 X202.075 Y73.34 E59.35283
G1 X202.352 Y73.947 E59.37503
G1 X202.686 Y74.786 E59.40506
G1 X202.902 Y75.482 E59.4293
G1 X203.134 Y76.334 E59.45867
G1 X203.339 Y77.249 E59.48986
G1 X203.459 Y78.138 E59.51969
G1 X203.54 Y79.023 E59.54925
G1 X203.583 Y79.813 E59.57556
G1 X203.595 Y80.583 E59.60118
G1 X203.596 Y139.298 E61.55405
G1 X203.585 Y140.16 E61.58272
G1 X203.553 Y140.91 E61.60769
G1 X203.478 Y141.785 E61.6369
G1 X203.298 Y142.95 E61.6761
G1 X203.143 Y143.647 E61.69985
G1 X203.013 Y144.158 E61.71739
G1 X202.686 Y145.21 E61.75403
G1 X202.393 Y145.959 E61.78078
G1 X202.168 Y146.481 E61.79969
G1 X201.643 Y147.529 E61.83867
G1 X201.267 Y148.164 E61.86322
G1 X200.972 Y148.628 E61.88151
G1 X200.312 Y149.551 E61.91925
G1 X199.858 Y150.102 E61.94299
G1 X199.467 Y150.546 E61.96267
G1 X198.644 Y151.381 E62.00166
G1 X198.099 Y151.861 E62.02582
G1 X197.665 Y152.22 E62.04455
G1 X196.767 Y152.884 E62.0817
G1 X196.111 Y153.301 E62.10755
G1 X195.649 Y153.574 E62.1254
G1 X194.607 Y154.114 E62.16443
G1 X193.945 Y154.401 E62.18843
G1 X193.424 Y154.607 E62.20707
G1 X192.291 Y154.982 E62.24676
G1 X191.639 Y155.148 E62.26914
G1 X191.101 Y155.27 E62.28749
G1 X189.946 Y155.463 E62.32643
G1 X189.144 Y155.538 E62.35323
G1 X188.496 Y155.577 E62.37482
G1 X187.876 Y155.595 E62.39545
G1 X32.706 Y155.6 E67.55642
G1 X31.889 Y155.59 E67.5836
G1 X31.277 Y155.563 E67.60397
G1 X30.435 Y155.498 E67.63206
G1 X30.067 Y155.46 E67.64437
G1 X29.174 Y155.328 E67.67439
G1 X28.49 Y155.174 E67.69771
G1 X27.622 Y154.947 E67.72755
G1 X26.726 Y154.668 E67.75876
G1 X25.874 Y154.32 E67.78937
G1 X25.083 Y153.954 E67.81836
G1 X24.252 Y153.524 E67.84948
G1 X23.59 Y153.109 E67.87547
G1 X22.597 Y152.419 E67.91569
G1 X21.888 Y151.859 E67.94574
G1 X21.353 Y151.364 E67.96998
G1 X20.729 Y150.747 E67.99917
G1 X20.095 Y150.059 E68.03028
G1 X19.618 Y149.449 E68.05604
G1 X19.294 Y149.001 E68.07443
G1 X18.925 Y148.465 E68.09607
G1 X18.435 Y147.672 E68.12708
G1 X18.166 Y147.156 E68.14643
G1 X17.925 Y146.66 E68.16477
G1 X17.648 Y146.053 E68.18696
G1 X17.314 Y145.214 E68.217
G1 X17.098 Y144.518 E68.24124
G1 X16.866 Y143.666 E68.27061
G1 X16.661 Y142.751 E68.30179
G1 X16.541 Y141.862 E68.33163
G1 X16.46 Y140.977 E68.36119
G1 X16.417 Y140.187 E68.3875
G1 X16.405 Y139.417 E68.41312
G1 X16.404 Y80.702 E70.36598
G1 X16.414 Y79.885 E70.39316
